svgs/thin/sd-cards.svg

<svg xmlns="http://www.w3.org/2000/svg" viewBox="0 0 448 512"><!-- Font Awesome Pro 6.0.0-alpha2 by @fontawesome - https://fontawesome.com License - https://fontawesome.com/license (Commercial License) --><path d="M384 0H224L96 128V352C96 387.25 124.75 416 160 416H384C419.25 416 448 387.25 448 352V64C448 28.75 419.25 0 384 0ZM432 352C432 378.467 410.467 400 384 400H160C133.533 400 112 378.467 112 352V134.627L230.627 16H384C410.467 16 432 37.533 432 64V352ZM344 448C339.578 448 336 451.594 336 456C336 478.062 318.062 496 296 496H72C41.125 496 16 470.875 16 440V152C16 129.938 33.938 112 56 112C60.422 112 64 108.406 64 104S60.422 96 56 96C25.125 96 0 121.125 0 152V440C0 479.688 32.297 512 72 512H296C326.875 512 352 486.875 352 456C352 451.594 348.422 448 344 448ZM248 64C243.594 64 240 67.594 240 72V152C240 156.406 243.594 160 248 160S256 156.406 256 152V72C256 67.594 252.406 64 248 64ZM312 64C307.594 64 304 67.594 304 72V152C304 156.406 307.594 160 312 160S320 156.406 320 152V72C320 67.594 316.406 64 312 64ZM376 64C371.594 64 368 67.594 368 72V152C368 156.406 371.594 160 376 160S384 156.406 384 152V72C384 67.594 380.406 64 376 64Z"/></svg>

<svg xmlns="http://www.w3.org/2000/svg" viewBox="0 0 448 512"><!--! Font Awesome Pro 6.0.0-alpha3 by @fontawesome - https://fontawesome.com License - https://fontawesome.com/license (Commercial License) --><path d="M384 0h-160L96 128v224c0 35.25 28.75 64 64 64h224c35.25 0 64-28.75 64-64V64C448 28.75 419.3 0 384 0zM432 352c0 26.47-21.53 48-48 48H160c-26.47 0-48-21.53-48-48V134.6L230.6 16H384c26.47 0 48 21.53 48 48V352zM344 448c-4.422 0-8 3.594-8 8c0 22.06-17.94 40-40 40h-224c-30.88 0-56-25.12-56-56v-288c0-22.06 17.94-40 40-40C60.42 112 64 108.4 64 104S60.42 96 56 96C25.13 96 0 121.1 0 152v288C0 479.7 32.3 512 72 512h224c30.88 0 56-25.12 56-56C352 451.6 348.4 448 344 448zM248 64c-4.406 0-8 3.594-8 8v80C240 156.4 243.6 160 248 160S256 156.4 256 152v-80C256 67.59 252.4 64 248 64zM312 64c-4.406 0-8 3.594-8 8v80C304 156.4 307.6 160 312 160S320 156.4 320 152v-80C320 67.59 316.4 64 312 64zM376 64c-4.406 0-8 3.594-8 8v80C368 156.4 371.6 160 376 160S384 156.4 384 152v-80C384 67.59 380.4 64 376 64z"/></svg>
